_site/assets/img/news.svg

<svg xmlns="http://www.w3.org/2000/svg" width="30" height="30" viewBox="0 0 30 30"><path fill="#C61F48" d="M19.062 15.574v-1.149c0-.316.255-.574.574-.574h4.983c.316 0 .572.258.572.574v1.149a.574.574 0 0 1-.572.575h-4.983a.572.572 0 0 1-.574-.575zm0-4.445v-1.15c0-.317.255-.574.574-.574h4.983c.316 0 .572.257.572.574v1.149a.576.576 0 0 1-.572.577h-4.983a.573.573 0 0 1-.574-.576zm0 8.891v-1.148c0-.319.255-.577.574-.577h4.983c.316 0 .572.258.572.577v1.148a.574.574 0 0 1-.572.575h-4.983a.574.574 0 0 1-.574-.575zm-9.196 0v-1.148c0-.319.256-.577.574-.577h6.513c.318 0 .573.258.573.577v1.148a.574.574 0 0 1-.573.575H10.44a.576.576 0 0 1-.574-.575zm1.915-8.7h3.833v2.913h-3.833V11.32zm-1.341 4.829h6.513a.573.573 0 0 0 .573-.575V9.979a.573.573 0 0 0-.573-.574H10.44a.573.573 0 0 0-.574.574v5.595c0 .318.257.575.574.575zm17.05 6.744H7.539c.017-.126.028-.252.028-.383V7.107H27.49v15.786zM2.508 22.51V8.639h2.76V22.51c-.015.706-2.166.383-2.377.383a.382.382 0 0 1-.383-.383zM28.641 4.809H7.567A2.3 2.3 0 0 0 5.4 6.34H1.36A1.15 1.15 0 0 0 .211 7.49v15.02a2.68 2.68 0 0 0 2.681 2.682h25.75c.634 0 1.149-.514 1.149-1.148V5.957a1.15 1.15 0 0 0-1.15-1.148z"/></svg>

<?xml version="1.0" encoding="utf-8"?>
<!-- Generator: Adobe Illustrator 16.0.4, SVG Export Plug-In . SVG Version: 6.00 Build 0)  -->
<!DOCTYPE svg PUBLIC "-//W3C//DTD SVG 1.1//EN" "http://www.w3.org/Graphics/SVG/1.1/DTD/svg11.dtd">
<svg version="1.1" id="Layer_1" xmlns="http://www.w3.org/2000/svg" xmlns:xlink="http://www.w3.org/1999/xlink" x="0px" y="0px"
	 width="30px" height="30px" viewBox="0 0 30 30" enable-background="new 0 0 30 30" xml:space="preserve">
<path fill="#C61F48" d="M19.062,15.574v-1.149c0-0.316,0.255-0.574,0.574-0.574h4.983c0.316,0,0.572,0.258,0.572,0.574v1.149
	c0,0.317-0.256,0.575-0.572,0.575h-4.983C19.316,16.149,19.062,15.892,19.062,15.574z M19.062,11.129V9.979
	c0-0.317,0.255-0.574,0.574-0.574h4.983c0.316,0,0.572,0.257,0.572,0.574v1.149c0,0.317-0.256,0.577-0.572,0.577h-4.983
	C19.316,11.706,19.062,11.446,19.062,11.129z M19.062,20.02v-1.148c0-0.319,0.255-0.577,0.574-0.577h4.983
	c0.316,0,0.572,0.258,0.572,0.577v1.148c0,0.316-0.256,0.575-0.572,0.575h-4.983C19.316,20.595,19.062,20.336,19.062,20.02z
	 M9.866,20.02v-1.148c0-0.319,0.256-0.577,0.574-0.577h6.513c0.318,0,0.573,0.258,0.573,0.577v1.148
	c0,0.316-0.255,0.575-0.573,0.575H10.44C10.123,20.595,9.866,20.336,9.866,20.02z M11.781,11.32h3.833v2.913h-3.833V11.32z
	 M10.44,16.149h6.513c0.318,0,0.573-0.258,0.573-0.575V9.979c0-0.317-0.255-0.574-0.573-0.574H10.44
	c-0.318,0-0.574,0.257-0.574,0.574v5.595C9.866,15.892,10.123,16.149,10.44,16.149z M27.49,22.893H7.539
	c0.017-0.126,0.028-0.252,0.028-0.383V7.107H27.49V22.893z M2.508,22.51V8.639h2.76V22.51c-0.015,0.706-2.166,0.383-2.377,0.383
	C2.679,22.893,2.508,22.722,2.508,22.51z M28.641,4.809H7.567c-0.999,0-1.851,0.639-2.167,1.531h-4.04
	c-0.635,0-1.149,0.516-1.149,1.15v15.02c0,1.483,1.2,2.682,2.681,2.682h25.75c0.634,0,1.149-0.514,1.149-1.148V5.957
	C29.79,5.322,29.274,4.809,28.641,4.809z"/>
</svg>
